source/svgs/bowtie/uEA53-step-insert.svg

<svg xmlns="http://www.w3.org/2000/svg" viewBox="0 0 448 448" enable-background="new 0 0 448 448"><path d="M221.817 112.003l-90.496 90.497-22.623-22.623 51.874-51.874h-160.572v-31.999h160.571l-51.874-51.874 22.623-22.623 90.497 90.496zm226.183 16h-127.996v95.997h-127.997v95.997h-127.996v127.996h383.989v-319.99z"/></svg>

<svg xmlns="http://www.w3.org/2000/svg" viewBox="0 0 448 448"><path d="M221.817 112.003L131.321 202.5l-22.623-22.623 51.874-51.874H0V96.004h160.571L108.697 44.13l22.623-22.623 90.497 90.496zm226.183 16H320.004V224H192.007v95.997H64.011v127.996H448v-319.99z"/></svg>
